X:1
T:MacGregor of Huara [sic]
B:Maybe in Seumas MacNeill's book?
C:Trad.
D:Highland Bagpipes, Seumas MacNeill, 1970
F:https://github.com/Coemgen/ABC-Notation-files/blob/master/MacGregor%20of%20Huara.abc
G:great highland bagpipe
H:history TBD
% I:linebreak $
L:1/8
M:3/4
% m: ~G2 = {A}G{F}G
N:I first heard this tune on "Crunluath" played by Fin Moore (son of Hamish Moore) under the title "MacGregor of Ruara."
N:The tune is also known as MacGregor of Roro, MacGregor's Search, MacGregor o Ruadh Shruth, etc.
N:Huara appears to be a misspelling of Ruara.
O:Scotland
% P:A
Q:"larghissimo" 1/4=40
R:air
% r:random remark
S:transcribed from Seumas MacNeill's recording.
% s: !pp! ** !f!
% U: T = !trill!
V:1 clef=treble stem=down
% W:lyrics after tune
% w:lyrics aligned with notes
Z:abc-transcription Kevin Griffin, Jan 1, 2019
K:AMix
%%MIDI gracedivider 8
%%MIDI drone 70 45 33 70 70
%%MIDI drum ddd 76 77 77 100 100 100
%%MIDI droneon
%%MIDI drumon
% still working on transcribing gracenotes and embellishments
A3/2B1/2 {gef}e2 {g}e2 | f3/2d/ e2 A2 | A3/2B1/2 {gef}e2 {g}e2 | f3/2e/ {Gdc}d2 G3/2B/ |
{Gdc}d3/2B/ {Gdc}d2 e3/2d/ | {gBe}B/A3/2 {gAe}A/G3/2 A3/2B1/2 | e3/2d/ B/d3/2 B/G3/2 | A2 {GdG}B2 A2 :|
|: A3/2B1/2 e2 {ag}a2 | g3/2e/ {g}e3/2d/ B/A3/2 | A3/2B1/2 e2 {ag}a2 | g/f/e/d/ g2 G3/2B/ |
[1  {Gdc}d3/2B/ {Gdc}d2 e3/2d/ | {gBe}B/A3/2 {gAe}A/G3/2 A3/2B1/2 | e3/2d/ B/d3/2 B/G3/2 | A2 {GdG}B2 A2 :|
[2  {Gdc}d3/2B/ {Gdc}d2 ef/g/ | {Be}B/A3/2 {gAe}A/G3/2 g3/2f/ | e3/2d/ B/d3/2 B/G3/2 | A2 {GdG}B2 A2 |]
